X:1
T:No. 6 Reverie
T:No. 1 Twilight Way
T:From "Poetic Tone Pictures", Op. 85
T:Anton Dvořák
C:Anton Dvorak
%%score { ( 1 4 ) | ( 2 3 ) }
L:1/8
Q:1/4=92
M:2/4
K:D
V:1 treble nm="Piano" snm="Pno."
V:4 treble 
V:2 bass 
V:3 bass 
V:1
"^Allegro moderato"!pp! x2 (3^D,-B,-!>!F- | x4 | [^DBf]4- | [DBf]4 |[Q:1/4=60] [^dbf']4- | %5
 [dbf']4 | [^Df]2 [F^d]2 | [Ec]2 [C^G]2 | [^Df]2 [F^d][Fd] | [Ec]^d/c/ [C^G]2 | [^DB]2 [C^G]2 | %11
 [^DB]2 [C^G]2 | [^DB][=D=G][^DB][=DG] | [^DB]4 |[Q:1/4=80]!pp! !>!f'2 !>!^d'2 | !>!c'2 !>!^g2 | %16
 !>!f'2 !>!^d'!>!d' | !>!c'!>!^d'/!>!c'/ !>!^g2 | !>!b2 !>!^g2 | !>!b2 !>!^g2 | %20
 !>!b!>!=g !>!b!>!=g | (3b/f/^d/ (3B/F/^D/ z2 |[Q:1/4=132] !>![^D,B,F]4- | [^D,B,F]4 | %24
!<(! [^DBf]4- | [DBf]4!<)! |[Q:1/4=72] [^dbf']4- | [dbf']4 |[Q:1/4=92]!f! [^dbf']2 [fb^d']2 | %29
 [e^gc']2 [ceg]2 | [^dbf']2 [fb^d'][fbd'] | [e^gc']3/2^d'/4c'/4 [ceg]2 | [B^dfb]2 [ce^g]2 | %33
 [B^dfb]2 [ce^g]2 |!>(! [B^dfb][B=d=g][Q:1/4=80][B^dfb][B=dg]!>)! |!p! [B^dfb]4 |: %36
[Q:1/4=98]!p! .f/.B/.=d/.f/ .=g/.B/.d/.g/ | .^a/.c/.e/.a/ .b/.d/.f/.b/ | %38
 .=c'/.e/.g/.c'/ .d'/.g/.b/.d'/ | .e'/.g/.=c'/.g'/ .f'/.e'/.^c'/.^a/ | %40
"_cresc." .d'/.b/.d'/.f'/ .g'/.b/.d'/.g'/ |!8va(! .^a'/.c'/.e'/.a'/ .b'/.d'/.f'/.b'/ | %42
!f! .=c''/!<(!.e'/.g'/.c''/ .e''/.g'/.c''/.g''/ | .f''/.e''/!<)!!ff!.^c''/.^a'/ b'!8va)! z :| %44
!8va(! !>!.b'/!f!.b/.f'/.b'/ !>!._b'/!f!.g'/.e'/._b/ | %45
 !>!.a'/!f!.a/.f'/.a'/ !>!._a'/!f!.=f'/.d'/._a/ | %46
 !>![e'g']/!f!.g/!<(!!>![^c'e']/.g'/ !>![^d'f']/.f/!>![b=d']/.f'/!8va)! | %47
 !>![ee']/.[a^c']/!>![_e_e']/.[a=c']/ !>![dd']/.[gb]/!>![=c=c']/.[g^a]/!<)! | %48
 !>!.b/!f!.B/.f/.b/ !>!._b/!f!.g/.e/._B/ | !>!.a/!f!.A/.f/.a/ !>!._a/!f!.=f/.d/._A/ | %50
!p! !>![eg]/!<(!.G/!>![^ce]/.g/ !>![^df]/.F/!>![B=d]/.f/ | %51
 [Ee]/[Ac]/[_E_e]/[A=c]/ [Dd]/[GB]/[=C=c]/[G^A]/!<)! |!ff!{/B} .F/.B,/.D/.F/ .G/.B,/.D/.G/ | %53
 .^A/.^C/.E/.A/ .B/.D/.F/.B/ | .=c/.E/.G/.c/ .d/.G/.B/.d/ | .e/.G/.e/.g/ .f/.e/.^c/.^A/ | %56
 .f/.B/.d/.f/ .g/.B/.d/.g/ | .^a/.c/.e/.a/ .b/.d/.f/.b/ | .^c'/.e/.g/.c'/ .d'/.g/.b/.d'/ | %59
 .e'/.g/.e'/.g'/ .f'/.e'/.c'/.^a/ |!8va(! .b'/.b/.b'/.d''/ .c''/.b'/.^g'/.^e'/ | %61
 .d'/.c'/.b/.^g/!8va)! =g/f/d'/c'/ | .b/.d/.b/.d'/ .c'/.b/.^g/.^e/ | .d/.c/.B/.^G/ =G/F/d/c/ | %64
 .B/.B,/.D/.F/ .G/.^A,/"_dim.".C/.E/ |[Q:1/4=92]"^e. rit." x4 | x4[Q:1/4=86] | x4[Q:1/4=80] | %68
!p![Q:1/4=92] [^D,B,F]4- | [D,B,F]4 |!>(! [^DBf]4- | [DBf]4!>)! |[Q:1/4=60]!pp! [^dbf']4- | %73
 [dbf']4 |!ppp![Q:1/4=72]!8va(! [^d'f'']2 [f'^d'']2 | [e'c'']2 [c'^g']2 | %76
 [^d'f'']2 [f'^d''][f'd''] | [e'c'']3/2^d''/4c''/4 [c'^g']2 | [^d'b']2 [c'^g']2 | %79
 [^d'b']2 [c'^g']2 | [^d'b'][=d'=g'][^d'b'][=d'g'] |!<(! [^d'b']4!8va)!!<)! | %82
!mf! [^db]!>(![=d=g][^db][=dg]!>)! |!mp! [^db]4 |!p![Q:1/4=60] [_EB]!>(![D=G][EB][DG] | %85
[Q:1/4=48]"^rit." [^DB][E=c][=DFB]!fermata![=CFA]!>)! || %86
[K:G]!pp![Q:1/4=60]"^Poco meno mosso - quasi andantino" z/ D/G/B/- [Bd]2- | %87
 [Bd](3B/c/B/ c!arpeggio![ce] | z/ D/G/B/- [Bd]2- | %89
 [Bd](3B/c/B/!<(! !arpeggio![Gce]!arpeggio![Fca]!<)! |!p! z/ D/!<(!G/B/{/B} Td3/2 ^c/4d/4!<)! | %91
 [Bg]/ z/ z/!mp! [df]/4[Bg]/4[df]/4 [Be]/ z/"_dim." [Bd]/4[Ge]/4[Bd]/4 | %92
 [Gc]/ z/ z/4 [GB]/4[Ec]/4[GB]/4!p! [EA]/!>(![CG]/[CF]/[G,E]/!>)! |!pp! _E3 D | %94
!pp! z/ [Bd]/g/b/{/g-b} [gbd']2- |"_cresc." [gbd'](3[gb]/c'/[gb]/ [egc']!arpeggio![fc'_e'] | %96
 z/ [_Bd]/g/_b/ !arpeggio![gbd']2- | [gbd'](3[g_b]/c'/[gb]/ [gc'_e']!arpeggio![fc'a'] | %98
!f! z/ d/g/_b/"^♭"{/b} Td'/4_e'/4d'/4e'/4d'/4e'/4 c'/4d'/4 | %99
!8va(! [_b_b']/ z/ z/4 [=f'a']/4[d'b']/4[f'a']/4 [d'g']/ z/ z/4 [d'=f']/4[_bg']/4[d'f']/4 | %100
[M:3/4] .[_b_e']/.[=fd']/.[gc']/.[db]/!>(! [fd']2 [=e^c']P[_e=c']!>)! | %101
[M:2/4]!pp! [d_b]/[=fc']/[db]/[fc']/ [fd']/!<(![b_e']/[fd']/[be']/ | %102
 [_b=f']/[d'g']/[ba']/!<)!!p![bg']/!>(! [gf']/[b_e']/[=fd']/[fa]/!>)! | %103
!pp! [d_b]/[=fc']/[db]/[fc']/ [fd']/!<(![b_e']/[fd']/[be']/ | %104
 [_b=f']/[d'g']/[ba']/!<)!!mp![bg']/!>(! [gf']/[b_e']/[=fd']/[fa]/!>)! | %105
!p! [d_b]/!<(![_ec']/[db]/[ec']/ [db]/[ec']/[db]/[ec']/!<)! |!mf! [=e^c']4 | %107
!p!!p! [d_b]/!<(![_e=c']/[db]/[ec']/ [db]/[ec']/[db]/[ec']/!<)! | !>![=e^c']4 | %109
!p! [e=b]/[^g^c']/[eb]/[gc']/ [ge']/[b^f']/[ge']/[bf']/ | %110
!<(! [b^g']/[e'a']/[bg']/!<)!!mp![e'a']/!>(! [bg']/[^c'f']/[f^d']/[ac']/!>)! | %111
!p! [eb]/"_cresc."[^g^c']/[eb]/[gc']/ [ge']/[bf']/[ge']/[bf']/ | %112
 [b^g']/[e'a']/[bg']/[e'a']/ g'/f'/^e'/f'/ | %113
!f! [^d'a']/!<(![f'=b']/[d'a']/[f'b']/ a'/^g'/f'/g'/!<)! | %114
 !>![^c'a']/!f![f'b']/[c'a']/[f'b']/ [=c'a']/[e'=g']/[c'f']/[e'g']/ | %115
 [c'a']/[e'b']/[c'a']/[e'b']/[Q:1/4=54]"^rit." [c'a']/[e'g']/[af']/[c'e']/!8va)! | %116
[Q:1/4=48]"_dim." [fd']/[ac']/[db]/[fa]/[Q:1/4=42] [Ag]/[cf]/!p![Q:1/4=36][Ge]/!fermata![Fcd]/ | %117
[Q:1/4=60]"^in tempo"!mp! z/ D/G/B/ d2- | d (3B/c/B/ [EGc]!arpeggio![CFAe] | z/ D/G/B/ [DBd]2- | %120
 [DBd] (3[G-B]/c/B/ [Gce]!arpeggio![Fcea] | %121
[Q:1/4=54]"^rit""_dim." [Gce]!arpeggio![Fcea][Q:1/4=48][Gce]!arpeggio![Fcea] | %122
!p![Q:1/4=42] [Gce]!arpeggio![Fcea]!pp![Q:1/4=36][GBd]!arpeggio![Ecg] || %123
[K:D][Q:1/4=92]"^Allegro moderato" !>![F^Acf]/ Tf/4!p!g/4f/4g/4f/4g/4f/4g/4f/4g/4f/4g/4f/4g/4 | %124
"_cresc." Tf4 | Tf4 | Tf4 |!f! .f/.B/.=d/.f/ .=g/.B/.d/.g/ | .^a/.c/.e/.a/ .b/.d/.f/.b/ | %129
!<(! .=c'/.e/.g/.c'/ .d'/.g/.b/.d'/ | .e'/.g/.=c'/.g'/ .f'/.e'/.^c'/.^a/!<)! | %131
!ff! .d'/.b/.d'/.f'/ .g'/.b/.d'/.g'/ |!8va(! .^a'/.c'/.e'/.a'/ .b'/.d'/.f'/.b'/ | %133
 .=c''/.e'/.g'/.c''/ .e''/.g'/.c''/.g''/ | .f''/.e''/.^c''/.^a'/ b'!8va)! z | %135
!ff!!8va(! !^!b'/.b/.f'/.b'/ !^!_b'/.g'/.e'/._b/ | !^!a'/.a/.f'/.a'/ !^!_a'/.=f'/.d'/._a/ | %137
 !^![e'g']/.g/.[^c'e']/.g'/ !^![^d'f']/.f/.[b=d']/.f'/!8va)! | %138
 !^![ee']/.[a^c']/ !^![_e_e']/.[a=c']/ !^![dd']/.[gb]/ !^![=c=c']/.[g^a]/ | %139
 .!^![Bb]/.B/.f/.[Bb]/ .!^![_B_b]/.g/.e/.[Bb]/ | !^![Aa]/.A/.f/.[Aa]/ !^![_A_a]/.=f/.d/.[Aa]/ | %141
 !>![eg]/.G/ !>![^ce]/.g/ !>![^df]/.F/ !>![B=d]/.f/ | %142
 !>![Ee]/.[Ac]/ !>![_E_e]/.[A=c]/ !>![Dd]/.[GB]/ !>![=C=c]/.[G^A]/ | %143
!ff!{/B} .F/.B,/.D/.F/ .G/.B,/.D/.G/ | .^A/.^C/.E/.A/ .B/.D/.F/.B/ | .=c/.E/.G/.c/ .d/.G/.B/.d/ | %146
 .e/.G/.e/.g/ .f/.e/.^c/.^A/ | .f/.B/.d/.f/ .g/.B/.d/.g/ | .^a/.c/.e/.a/ .b/.d/.f/.b/ | %149
 .^c'/.e/.g/.c'/ .d'/.g/.b/.d'/ | .e'/.g/.e'/.g'/ .f'/.e'/.c'/.^a/ | %151
!8va(! .b'/.b/.b'/.d''/ .c''/.b'/.^g'/.^e'/ | .d'/.c'/.b/.^g/!8va)! =g/f/d'/c'/ | %153
 .b/.d/.b/.d'/ .c'/.b/.^g/.^e/ | .d/.c/.B/.^G/ =G/F/d/c/ | .B/.B,/.D/.F/ .G/.^A,/"_dim.".C/.E/ | %156
[Q:1/4=86]"^rit." x4 | x4[Q:1/4=80] | x4[Q:1/4=74] |!p![Q:1/4=92]"^Tempo I" [^D,B,F]4- | [D,B,F]4 | %161
!>(! [^DBf]4- | [DBf]4!>)! |!pp! [^dbf']4- | [dbf']4 |!ppp![Q:1/4=80]!8va(! f'' z ^d'' z | %166
 c'' z ^g' z | f'' z .^d''.d'' | c''3/2^d''/4c''/4 ^g'2 | b'2 ^g'2 | b'2 ^g'2 | b'=g' b'g' | %172
!ppp! b'!8va)!"_cresc." x ^g/4f/4^d/4B/4 x |!mp! bbbg | [^db]!>(! z ^G/4F/4^D/4B,/4 z!>)! | %175
!pp![Q:1/4=70]"^ritard poco a poco" [^DB][C^G][Q:1/4=60][DB][CG] | %176
[Q:1/4=60]!<(! [B,B]2[Q:1/4=50] ^G2!<)! |[Q:1/4=92]"^in tempo"!>(! [^D,B,F]4-!>)! | [D,B,F]4 | %179
!p! [^DBf]4- |[Q:1/4=80] [DBf]4- | [DBf]2!pp![Q:1/4=60] !arpeggio![fbf']2 | %182
!pp![Q:1/4=184]!8va(! z2 (3f'-b'-f''- |[Q:1/4=60] [f'b'f'']4- | [f'b'f'']4- | %185
 [f'b'f'']2 z2!8va)! |] %186
V:2
!ped! (3B,,,-F,,-B,,- x2 |[I:staff -1] !fermata![D,B,F]4 |[I:staff +1] [B,,F,B,]4- | [B,,F,B,]4 | %4
[K:treble] [B,FB]4-!ped-up! | [B,FB]4 |[K:bass]!ped! F,2 B,2 | ^G,2 E,2!ped-up! |!ped! F,2 B,2 | %9
 ^G,2 E,2!ped-up! |!ped! F,2 E,2 | F,2 E,2!ped-up! |!ped! F,B,!ped-up!!ped!F,B,!ped-up! | F,4 | %14
[K:treble]!ped! B, (3^d/B/F/B, (3d/B/F/!ped-up! |!ped! B, (3c/^G/E/B, (3G/E/!ped-up!B,/- | %16
!ped! B, (3^d/B/F/B, (3d/B/!ped-up!F/ |!ped! B, (3c/^G/E/B, (3G/E/B,/!ped-up! | %18
!ped! B, (3B/F/!ped-up!B,/-!ped!B, (3^G/E/B,/!ped-up! | %19
!ped! B, (3B/F/B,/-!ped-up!!ped!B, (3^G/E/B,/!ped-up! | FBFB | %21
!ped! B, z[K:bass] (3B,/F,/^D,/(5:4:5B,,/4D,/4F,/4B,/4^D/4!ped-up! | [B,,,F,,B,,]4- | %23
 [B,,,F,,B,,]4 | [B,,F,B,]4- | [B,,F,B,]4[K:treble] | [B,FB]4- | [B,FB]4 | %28
[K:bass]!mp!!ped! B,,,/F,,/B,,/F,/[K:treble] B,/F/B/F/!ped-up! | %29
!ped! B,/F/B/F/[K:bass] B,/F,/B,,/F,,/!ped-up! | %30
!ped! B,,,/F,,/B,,/F,/[K:treble] B,/F/B/F/!ped-up! | %31
!ped! B,/F/B/F/[K:bass] B,/F,/B,,/F,,/!ped-up! | %32
!ped! B,,,/F,,/B,,/F,/!ped-up!!ped! B,/F,/B,,/F,,/!ped-up! | %33
!ped! B,,,/F,,/B,,/F,/!ped-up!!ped! B,/F,/B,,/!mf!F,,/!ped-up! | %34
!ped! B,,,/B,,/B,,/B,/!ped-up!!ped! B,/B,,/B,,/B,,,/!ped-up! | %35
!ped! B,,,/F,,/B,,/F,/ B,/F,/B,,/ z/!ped-up! |: %36
 !>!B,,/.[F,=D]/.[F,D]/.[F,D]/ .[F,E]/.[F,D]/.[F,D]/.[F,D]/ | %37
 .[F,CE]/.[F,CE]/.[F,CE]/.[F,CE]/ !>!B,,/.[F,D]/.[F,D]/.[F,D]/ | %38
 .[F,=CE]/.[F,CE]/.[F,CE]/.[F,CE]/ .[F,B,D]/.[F,B,D]/.[F,B,D]/.[F,B,D]/ | %39
 !>!B,,/.[F,=CE]/.[F,CE]/.[F,CE]/ .[F,^CE]/.[F,CE]/.[F,CE]/.[F,CE]/ | %40
 !>!B,,/.[F,B,D]/.[F,B,D]/.[F,B,D]/ .[F,E]/.[F,D]/.[F,D]/.[F,D]/ | %41
 .[F,CE]/.[F,CE]/.[F,CE]/.[F,CE]/ !>!B,,/.[F,B,D]/.[F,B,D]/.[F,B,D]/ | %42
 .[F,=CE]/.[F,CE]/.[F,CE]/.[F,CE]/ !>!B,,/.[F,CE]/.[F,CE]/.[F,CE]/ | %43
 .[F,CE]/.[F,CE]/.[F,CE]/.[F,CE]/ !>!B,,/[F,D]/ z :|[K:treble] .B,/.d/.B/.F/ .=B,/.E/.G/.c/ | %45
 .B,/.d/.A/.F/ .B,/.=F/._A/.B/ |!ped! !^!=c!^!^A!^!B!ped-up!!^!^G | !^!=A!^!F!^!=G!^!E | %48
[K:bass]!ped! .B,,/.D/.B,/.F,/!ped-up!!ped! .=B,,/.E,/.G,/.C/!ped-up! | %49
!ped! .B,,/.D/.A,/.F,/!ped-up!!ped! .D,/.=F,/._A,/.B,/!ped-up! |!ped! .=C!ped-up!.^A,.B,.^G, | %51
 .=A,.F,.=G,.E, |!f!!ped! [B,,,F,,] !^![B,,F,]2!ped-up!!ped! [B,,,F,,]- | %53
[B,,,F,,] [B,,F,][B,,,F,,]!ped-up!!ped! [B,,F,]- |[B,,F,] [B,,,F,,]2!ped-up! .[B,,F,] | %55
 .[B,,,F,,]!ped! [B,,F,]2!ped-up! .[B,,,F,,] |!ped! B,,/D/B,/F,/!ped-up!!ped! D,/=F/D/B,/!ped-up! | %57
!ped! .C,/.G/.E/.C/!ped-up!!ped! .^G,/[K:treble].B/.^F/.D/!ped-up! | %58
!ped! .A,/.c/.=G/.E/!ped-up!!ped! .B,/.d/.B/.G/!ped-up! | %59
!ped! .=C/.e/.=c/.G/!ped-up!!ped! .F,/.^A/.^c/.e/!ped-up! |!ped! ^G,/ [^GB=d^e]3/2- [GBde]2- | %61
 [GBde]2!ped-up!!f!!ped! F,/ [F^A=e]3/2!ped-up! |!ped! ^E,/ [D^GB]3/2- [DGB] z | %63
 z2!ped-up![K:bass]!ped! F,,/ [=E,^A,]3/2!ped-up! | %64
!ped! .B,,,/.B,,/.F,,/.B,,,/!ped-up!!ped! .B,,/.F,,/.B,,,/.B,,/!ped-up! | %65
!ped![I:staff -1] .D/[I:staff +1].^E,/.F,/.B,/!ped-up!!ped! .=C/.=E,/.F,/.G,/!ped-up! | %66
!ped! B,/^C,/D,/B,/!ped-up!!ped! C,/D,/B,/C,/!ped-up! | %67
!ped! F,/B,/C,/D,/!ped-up!!ped! B,/C,/D,/B,/!ped-up! | [B,,,F,,B,,]4- | !fermata![B,,,F,,B,,]4 | %70
 [B,,F,B,]4- | [B,,F,B,]4 |[K:treble] [B,FB]4- | [B,FB]4 |!ped! [B-f]2 [B-b]2 | %75
 [B-^g]2 [Be]2!ped-up! |!ped! [B-f]2 [B-b]2 | [B-^g]2 [Be]2!ped-up! |!ped! [B-f]2 [Be]2 | %79
 [B-f]2 [Be]2!ped-up! |!ped! fb!ped-up!!ped!fb!ped-up! | %81
!ped! [Bf] ^g'/4f'/4^d'/4b/4 x ^G/4F/4^D/4B,/4!ped-up! |!ped! FB!ped-up!!ped!FB!ped-up! | %83
!ped! [B,F] ^g/4!>(!f/4^d/4B/4 x[K:bass] ^G,/4F,/4^D,/4B,,/4!ped-up!!>)! | F,G,F,G, | F,G, D,2 || %86
[K:G]!pp!!ped! B,G,F,G, | B,G, D,2!ped-up! |!pp!!ped! B,G,F,G, | B,G, D,2!ped-up! | %90
!pp!!ped! B,G, GF | EB,!ped! G,B,!ped-up! |!ped! E,!ped-up!G, C,/E,/A,,/C,/ |!pp! D,,^G,,A,,D,, | %94
[K:treble]!ped! (6:4:6G,/D/G/d/!ped-up!e/d/ (6:4:6e/d/e/d/e/d/ | %95
 (6:4:6G/d/e/d/e/d/ (6:4:6G/!ped-up!d/G/!ped!D/d/G/ | %96
!ped! (6:4:6G,/D/G/d/_e/d/ (6:4:6e/d/e/d/e/d/!ped-up! | %97
 (6:4:6G/d/_e/d/e/d/ (6:4:6G/!ped-up!d/G/!ped!D/d/G/ | %98
!ped! (6:4:6G,/D/G/_B/d/B/ (6:4:6G/B/d/g/=f/_e/!ped-up! | %99
!ped! (6:4:6d/=f/d/f/d/f/!ped-up!!ped! (6:4:6_B/d/B/d/B/d/!ped-up! | %100
[M:3/4] (6:4:6G/_B/G/_E/G/E/!ped! (6:4:6=F,/=E/=F/^F/G/^G/!ped-up! (6:4:6A/=F/A/F/A/F/ | %101
[M:2/4]!pp!!ped! _B/4=F/4B/4F/4B/4F/4B/4F/4 B/4F/4B/4F/4B/4F/4B/4F/4 | x2!ped-up! %102
!ped! _B/4d/4B/4d/4B/4d/4B/4d/4 B/4_e/4B/4e/4B/4e/4B/4e/4!ped-up! | %103
!pp!!ped! _B/4=F/4B/4F/4B/4F/4B/4F/4 B/4F/4!<(!B/4F/4B/4F/4B/4F/4!ped-up! | %104
!ped! _B/4d/4B/4d/4B/4d/4!<)!!p!B/4d/4!>(! B/4_e/4B/4e/4B/4e/4B/4e/4!ped-up!!>)! | %105
!pp!!ped! =F/4!<(!_G/4F/4G/4F/4G/4F/4G/4 F/4G/4F/4G/4F/4G/4F/4G/4!ped-up!!<)! | %106
!ped!!>(! ^F4!ped-up!!>)! | %107
!p!!ped! G/4!<(!^F/4G/4F/4G/4F/4G/4F/4 G/4F/4G/4F/4G/4F/4G/4F/4!ped-up!!<)! | %108
!ped!!>(! !>!G4!ped-up!!>)! |!p!!ped! ^G/4B/4G/4B/4G/4B/4G/4B/4 e/4B/4e/4B/4e/4B/4e/4B/4!ped-up! | %110
!<(!!ped! e/4B/4e/4B/4e/4B/4!<)!!p!e/4B/4!>(! e/4B/4A/4e/4F/4A/4^^F/4A/4!ped-up!!>)! | %111
!p!!ped! ^G/4"_cresc."B/4G/4B/4G/4B/4G/4B/4 e/4B/4e/4B/4e/4B/4e/4B/4!ped-up! | %112
 e/4B/4e/4B/4e/4B/4e/4B/4!ped-up!!ped! ^B,/4F/4A/4^d/4^e/4f/4e/4d/4 | %113
!mf! f/4^d/4f/4d/4f/4d/4f/4d/4!ped-up!!ped! ^C/4F/4A/4^c/4f/4a/4f/4a/4 | %114
 f/4a/4f/4a/4f/4a/4f/4a/4!ped-up!!ped! =D/4A/4=c/4e/4a/4d/4a/4d/4 | %115
 f/4a/4c'/4a/4f/4a/4c'/4a/4 f/4a/4c'/4a/4f/4a/4c'/4a/4 | %116
 A/4d/4F/4A/4D/4F/4A,/4D/4[K:bass] A,/4D/4D,/4A,/4 A,,/4D,/4D,,/4!fermata!D,/4 | %117
!pp!!p!!ped! B,G,F,!ped-up!G, | B,G,!ped-up!!ped! D,2 |!pp!!mp!!ped! B,G,F,G,!ped-up! | %120
 B,G,!ped-up!!ped! D,2!ped-up! |!ped! A,D,A,D,!ped-up! |!ped! A,D,B,E,!ped-up! || %123
[K:D]!ped! !arpeggio!!>![F,,C,E,^A,]/!p!!ped-up!!ped! .^A,,/.C,/.F,/ .=G,/.B,,/.D,/.G,/!ped-up! | %124
 .^G,/.^B,,/.^D,/.G,/ .^A,/.D,/.E,/.A,/ | B, =C ^C =D | ^D E =F ^F | %127
 !>!B,,/.[F,=D]/.[F,D]/.[F,D]/ .[F,E]/.[F,D]/.[F,D]/.[F,D]/ | %128
 .[F,CE]/.[F,CE]/.[F,CE]/.[F,CE]/ !>!B,,/.[F,D]/.[F,D]/.[F,D]/ | %129
 .[F,=CE]/.[F,CE]/.[F,CE]/.[F,CE]/ .[F,B,D]/.[F,B,D]/.[F,B,D]/.[F,B,D]/ | %130
 !>!B,,/.[F,=CE]/.[F,CE]/.[F,CE]/ .[F,^CE]/.[F,CE]/.[F,CE]/.[F,CE]/ | %131
 !>!B,,/.[F,B,D]/.[F,B,D]/.[F,B,D]/ .[F,E]/.[F,D]/.[F,D]/.[F,D]/ | %132
 .[F,CE]/.[F,CE]/.[F,CE]/.[F,CE]/ !>!B,,/.[F,B,D]/.[F,B,D]/.[F,B,D]/ | %133
 .[F,=CE]/.[F,CE]/.[F,CE]/.[F,CE]/ !>!B,,/.[F,CE]/.[F,CE]/.[F,CE]/ | %134
 .[F,CE]/.[F,CE]/.[F,CE]/.[F,CE]/ !>!B,,/[F,D]/ z | %135
[K:treble]!ped! .B,/.d/.B/.F/!ped-up!!ped! .=B,/.E/.G/.c/!ped-up! | %136
!ped! .B,/.d/.A/.F/!ped-up!!ped! .B,/.=F/._A/.B/!ped-up! |!ped! !^!=c!^!^A!^!B!^!^G!ped-up! | %138
 !^!=A!^!F!^!=G!^!E |[K:bass]!ped! .B,,/.D/.B,/.F,/!ped-up!!ped! .=B,,/.E,/!ped-up!.G,/.C/ | %140
!ped! .B,,/.D/.A,/.F,/!ped-up!!ped! .D,/.=F,/._A,/.B,/!ped-up! |!ped! .=C.^A,.B,.^G,!ped-up! | %142
 .=A,.F,.=G,.E, |!f!!ped! [B,,,F,,] !^![B,,F,]2!ped-up!!ped! [B,,,F,,]- | %144
[B,,,F,,] [B,,F,][B,,,F,,]!ped-up!!ped! [B,,F,]- | [B,,F,] [B,,,F,,]2 .[B,,F,] | %146
 .[B,,,F,,]!ped! [B,,F,]2!ped-up! .[B,,,F,,] |!ped! B,,/D/B,/F,/!ped-up!!ped! D,/=F/!ped-up!D/B,/ | %148
!ped! .C,/.G/.E/.C/!ped-up!!ped! .^G,/[K:treble].B/.^F/.D/!ped-up! | %149
!ped! .A,/.c/.=G/.E/!ped-up!!ped! .B,/.d/.B/.G/!ped-up! | %150
!ped! .=C/.e/.=c/.G/!ped-up!!ped! .F,/.^A/.^c/.e/!ped-up! | %151
!ped! ^G,/ [^GB=d^e]3/2- [GBde]2-!ped-up! | [GBde]2!f!!ped-up!!ped! F,/ [F^A=e]3/2 | %153
!ped! ^E,/ [D^GB]3/2- [DGB] z!ped-up! | z2!ped-up![K:bass]!ped! F,,/ [=E,^A,]3/2 | %155
!ped! .B,,,/.B,,/.F,,/.B,,,/!ped-up!!ped! .B,,/.F,,/.B,,,/.B,,/!ped-up! | %156
!ped![I:staff -1] .D/[I:staff +1].^E,/.F,/.B,/!ped-up!!ped! .=C/.=E,/.F,/.G,/!ped-up! | %157
!ped! B,/^C,/D,/B,/!ped-up!!ped! C,/D,/B,/C,/!ped-up! | %158
!ped! F,/B,/C,/D,/!ped-up!!ped! B,/C,/D,/B,/!ped-up! | [B,,,F,,B,,]4- | !fermata![B,,,F,,B,,]4 | %161
 [B,,F,B,]4- | [B,,F,B,]4 |[K:treble] [B,FB]4- | [B,FB]4 | %165
!ppp!!ped! B (3^d'/b/f/B (3d'/b/f/!ped-up! |!ped! B (3c'/^g/e/B (3b/e/B/-!ped-up! | %167
!ped! B (3^d'/b/f/B (3d'/b/f/!ped-up! |!ped! B (3c'/^g/e/B (3b/e/B/-!ped-up! | %169
!ped! B(3b/f/B/-!ped-up!!ped! B(3b/e/B/-!ped-up! |!ped! B(3b/f/B/-!ped-up!!ped! B(3b/e/B/!ped-up! | %171
 (3[Bf]/b/[I:staff -1]^d/[I:staff +1] (3[B=g]/b/[I:staff -1]=d/[I:staff +1] (3[Bf]/b/[I:staff -1]^d/[I:staff +1] (3[Bg]/b/[I:staff -1]=d/ | %172
[I:staff +1] [Bf]!ped! ^g'/4f'/4^d'/4b/4 x ^G/4F/4^D/4B,/4!ped-up! | %173
 (3[B,F]/B/[I:staff -1]^d/[I:staff +1] (3[B,G]/B/[I:staff -1]=d/[I:staff +1] (3[B,F]/B/[I:staff -1]^d/[I:staff +1] (3[B,G]/B/[I:staff -1]=d/ | %174
[I:staff +1] [B,F]!ped! ^g/4f/4^d/4B/4 z[K:bass] ^A,/4F,/4^D,/4B,,/4-!ped-up! | F,E,F,E, | %176
 ^D,2 B,,C, |!ped! [B,,,F,,B,,]4-!ped-up! | [B,,,F,,B,,]4 |"^morendo" [B,,F,B,]4- | [B,,F,B,]4- | %181
 [B,,F,B,]2[K:treble]!ped-up!!ped! !arpeggio![B,F^d]2 | (3B-f-^d'- x2 | [Bfd']4- | [Bfd']4- | %185
 [Bfd']2 z2 |] %186
V:3
 x4 | [B,,,F,,B,,]4 | x4 | x4 |[K:treble] x4 | x4 |[K:bass] B,,4- | B,,4 | B,,4- | B,,4 | B,,4- | %11
 B,,4 | B,,4- | B,,4 |[K:treble] x4 | x4 | x4 | x4 | x4 | x4 | B,4 | x2[K:bass] x2 | x4 | x4 | x4 | %25
 x2 x x/[K:treble] [B,FB]/ | x4 | x4 |[K:bass] x2[K:treble] x2 | x2[K:bass] x2 | x2[K:treble] x2 | %31
 x2[K:bass] x2 | x4 | x4 | x4 | x4 |: x4 | x4 | x4 | x4 | x4 | x4 | x4 | x4 :|[K:treble] x4 | x4 | %46
 B,4- | B,4 |[K:bass] x4 | x4 | B,,4- | B,,4 | x4 | x4 | x4 | x4 | x4 | x5/2[K:treble] x3/2 | x4 | %59
 x4 | x4 | x4 | x4 | x2[K:bass] x2 | x4 | .F,,/.B,,,/.B,,/.F,,/ .B,,,/.B,,/.F,,/.B,,,/ | %66
 B,,/F,,/B,,,/B,,/ F,,/B,,,/B,,/F,,/ | B,,,/B,,/F,,/B,,,/ B,,/F,,/B,,,/B,,/ | x4 | x4 | x4 | x4 | %72
[K:treble] x4 | x4 | x4 | x4 | x4 | x4 | x4 | x4 | B2 B2 | x4 | B,4 | x3[K:bass] x | B,,4 | %85
 B,,A,, D,2 ||[K:G] !>!G,,4- | G,,4 | !>!G,,4- | G,,4 | !>!G,,2 z2 | x4 | x4 | x4 |[K:treble] x4 | %95
 x4 | x4 | x4 | x4 | x4 |[M:3/4] x6 |[M:2/4] !>!_B,4- | B,4 | !>!_B,4- | B,4 | !>!_B,4 | %106
 A,/4_B,/4A,/4B,/4A,/4B,/4A,/4B,/4 A,/4B,/4A,/4B,/4A,/4B,/4A,/4B,/4 | !>!_B,4 | %108
 A,/4_B,/4A,/4B,/4A,/4B,/4A,/4B,/4 A,/4B,/4A,/4B,/4A,/4B,/4A,/4B,/4 | !>!=B,4- | B,3 B, | !>!B,4- | %112
 B,2 ^B,2- | B,2 ^C2- | C2 D2- | D z z2 | x2[K:bass] x2 | !>!G,,4- | G,,2 G,,2 | !>!G,,4- | %120
 G,,2 G,,2- | G,,4 | G,,3 C, ||[K:D] x4 | x4 | (3B,/^D,/F,/ (3=C/E,/G,/ (3^C/^E,/^G,/ (3D/F,/A,/ | %126
 (3^D/^^F,/^A,/ (3E/^G,/B,/ (3=F/=A,/=C/ (3^F/^A,/^C/ | x4 | x4 | x4 | x4 | x4 | x4 | x4 | x4 | %135
[K:treble] x4 | x4 | B,4- | B,4 |[K:bass] x4 | x4 | B,,4- | B,,4 | x4 | x4 | x4 | x4 | x4 | %148
 x5/2[K:treble] x3/2 | x4 | x4 | x4 | x4 | x4 | x2[K:bass] x2 | x4 | %156
 .F,,/.B,,,/.B,,/.F,,/ .B,,,/.B,,/.F,,/.B,,,/ | B,,/F,,/B,,,/B,,/ F,,/B,,,/B,,/F,,/ | %158
 B,,,/B,,/F,,/B,,,/ B,,/F,,/B,,,/B,,/ | x4 | x4 | x4 | x4 |[K:treble] x4 | x4 | x4 | x4 | x4 | x4 | %169
 x4 | x4 | x4 | x4 | x4 | x x x[K:bass] x | B,,4- | B,,2 E,,2 | x4 | x4 | x4 | x4 | %181
 x2[K:treble] x2 | x4 | x4 | x4 | x4 |] %186
V:4
 x4 | x4 | x4 | x4 | x4 | x4 | x4 | x4 | x4 | x4 | x4 | x4 | x4 | x4 | (3f'/b/f/ z (3^d'/b/f/ z | %15
 (3c'/^g/e/ z (3g/e/c/ z | (3f'/b/f/ z (3^d'/b/f/ z | (3c'/^g/e/ z (3g/f/c/ z | %18
 (3b/f/^d/ z (3^g/e/c/ z | (3b/f/^d/ z (3^g/e/c/ z | (3b/^d/B/ (3g/=d/B/ (3b/^d/B/ (3g/=d/B/ | x4 | %22
 x4 | x4 | x4 | x2 x x/ [^dbf']/ | x4 | x4 | x4 | x4 | x4 | x4 | x4 | x4 | x4 | x4 |: x4 | x4 | %38
 x4 | x4 | x4 |!8va(! x4 | x4 | x3!8va)! x :|!8va(! x4 | x4 | x4!8va)! | x4 | x4 | x4 | x4 | x4 | %52
 x4 | x4 | x4 | x4 | x4 | x4 | x4 | x4 |!8va(! x4 | x2!8va)! x2 | x4 | x4 | x4 | x4 | x4 | x4 | %68
 x4 | x4 | x4 | x4 | x4 | x4 |!8va(! x4 | x4 | x4 | x4 | x4 | x4 | x4 | x2!8va)! ^g/4f/4^d/4B/4 x | %82
 x4 | x2 ^G/4F/4^D/4B,/4 x | x4 | x4 ||[K:G] x/ D3/2- D2- | DDEF | x/ D3/2- D2- | DD x2 | %90
 x/ D3/2 x2 | x4 | x4 | [A,C]4 | x4 | x4 | x4 | x4 | x4 |!8va(! x4 |[M:3/4] x6 |[M:2/4] x4 | x4 | %103
 x4 | x4 | x4 | x4 | x4 | x4 | x4 | x4 | x4 | x2 a2 | x2 ^c'2 | x4 | x4!8va)! | x4 | %117
 x/ D3/2- [DB]2- | [DB] G x2 | x/ D3/2 x2 | x4 | x4 | x4 ||[K:D] x2 F/F/F/F/ | F/F/F/F/ F/F/F/F/ | %125
 F/F/F/F/ F/F/F/F/ | F/F/F/F/ F/F/F/F/ | x4 | x4 | x4 | x4 | x4 |!8va(! x4 | x4 | x3!8va)! x | %135
!8va(! x4 | x4 | x4!8va)! | x4 | x4 | x4 | x4 | x4 | x4 | x4 | x4 | x4 | x4 | x4 | x4 | x4 | %151
!8va(! x4 | x2!8va)! x2 | x4 | x4 | x4 | x4 | x4 | x4 | x4 | x4 | x4 | x4 | x4 | x4 | %165
!8va(! (3f''/b'/f'/ x (3^d''/b'/f'/ x | (3c''/^g'/e'/ x (3g'/e'/c'/ x | %167
 (3f''/b'/f'/ x (3^d''/b'/f'/ x | (3c''/^g'/e'/ z (3g'/e'/c'/ z | (3b'/f'/^d'/ z (3^g'/e'/c'/ z | %170
 (3b'/f'/^d'/ z (3^g'/e'/c'/ z | x4 | ^d'!8va)! x x2 | x4 | x4 | x4 | x2 ^G,^A, | x4 | x4 | x4 | %180
 x4 | x4 |!8va(! x4 | x4 | x4 | x4!8va)! |] %186

